src/img/AnimalSound-play.svg

<svg width="70" height="70" viewBox="0 0 70 70" fill="none" xmlns="http://www.w3.org/2000/svg">
<path fill-rule="evenodd" clip-rule="evenodd" d="M35 70C54.33 70 70 54.33 70 35C70 15.67 54.33 0 35 0C15.67 0 0 15.67 0 35C0 54.33 15.67 70 35 70ZM29.2762 19.1842C27.8758 18.2505 26 19.2545 26 20.9376V49.5893C26 51.2724 27.8758 52.2763 29.2762 51.3427L50.765 37.0168C52.0162 36.1827 52.0162 34.3442 50.765 33.51L29.2762 19.1842Z" fill="#FCD342"/>
</svg>

<svg xmlns="http://www.w3.org/2000/svg" width="70" height="70" fill="none" viewBox="0 0 70 70"><path fill="#FCD342" fill-rule="evenodd" d="M35 70c19.33 0 35-15.67 35-35S54.33 0 35 0 0 15.67 0 35s15.67 35 35 35Zm-5.724-50.816c-1.4-.934-3.276.07-3.276 1.754v28.651c0 1.683 1.876 2.687 3.276 1.754l21.489-14.326a2.107 2.107 0 0 0 0-3.507L29.276 19.184Z" clip-rule="evenodd"/></svg>
